svg/emoji_u1f509.svg

<svg width="128" height="128" viewBox="0 0 128 128" fill="none" xmlns="http://www.w3.org/2000/svg">
<path d="M92.47 59.6401C94.58 53.1901 93.23 45.8201 88.3 40.5001C83.36 35.1801 76.11 33.2801 69.52 34.9101" stroke="#B0BEC5" style="stroke:#B0BEC5;stroke:color(display-p3 0.6902 0.7451 0.7725);stroke-opacity:1;" stroke-width="5" stroke-miterlimit="10" stroke-linecap="round"/>
<path d="M93.4302 98.5202C93.4302 98.5202 69.7702 92.3102 52.2202 108.94C44.6702 116.1 39.3302 121.41 38.0402 122.7C34.0102 126.73 23.6402 125.66 13.5702 115.59C3.50019 105.52 1.94019 93.4902 5.97019 89.4702C6.57019 88.8702 13.3102 82.8802 20.7902 74.9702C28.7802 66.5102 27.3402 54.7002 27.8502 47.4102C28.4602 38.6502 30.0702 35.1802 30.0702 35.1802L93.4302 98.5202Z" fill="#8CAFBF" style="fill:#8CAFBF;fill:color(display-p3 0.5490 0.6863 0.7490);fill-opacity:1;"/>
<path d="M93.44 98.516C100.438 91.5179 91.9285 71.662 74.4331 54.1667C56.9378 36.6713 37.082 28.1617 30.0838 35.1598C23.0857 42.158 31.5954 62.0138 49.0907 79.5091C66.586 97.0044 86.4419 105.514 93.44 98.516Z" fill="#54646D" style="fill:#54646D;fill:color(display-p3 0.3294 0.3922 0.4275);fill-opacity:1;"/>
<path d="M80.7302 63.6399C80.7302 63.6399 63.3702 77.2499 72.5602 96.3099L40.3702 69.6899L27.9702 42.8799L30.0802 35.1699L40.2302 32.6699L55.8902 40.4999L74.4302 54.1699L80.7302 63.6399Z" fill="#2C3640" style="fill:#2C3640;fill:color(display-p3 0.1725 0.2118 0.2510);fill-opacity:1;"/>
<path d="M43.9204 70.01L52.6204 64.04L64.7204 76.14L59.5004 85.42C50.0804 78.02 43.9204 70.01 43.9204 70.01Z" fill="#8CAFBF" style="fill:#8CAFBF;fill:color(display-p3 0.5490 0.6863 0.7490);fill-opacity:1;"/>
<path d="M64.7225 76.142C66.308 74.5564 64.8834 70.5612 61.5405 67.2183C58.1977 63.8755 54.2024 62.4509 52.6169 64.0364C51.0314 65.6219 52.456 69.6171 55.7989 72.96C59.1417 76.3029 63.137 77.7275 64.7225 76.142Z" fill="#B2DFEC" style="fill:#B2DFEC;fill:color(display-p3 0.6980 0.8745 0.9255);fill-opacity:1;"/>
<path d="M23.5904 79.0198C26.9304 74.6598 27.1904 72.4698 28.3204 67.0898C31.5104 74.0598 36.7304 81.0798 42.8004 85.7598C40.1104 86.6798 39.7904 84.7999 37.2904 86.1599C35.2104 87.2899 33.3004 88.6998 31.4404 90.1698C27.2204 93.4798 33.3404 88.1398 29.6404 91.9198C29.0404 92.5398 23.5904 98.2898 23.5904 98.2898C23.5904 98.2898 20.2804 97.7199 19.3204 96.1599C18.7404 95.2099 17.1904 88.0499 17.1904 88.0499C17.1904 88.0499 22.6004 80.3098 23.5904 79.0198Z" fill="#B2DFEC" style="fill:#B2DFEC;fill:color(display-p3 0.6980 0.8745 0.9255);fill-opacity:1;"/>
<path d="M23.5703 122.75C23.5303 122.74 23.4803 122.74 23.4203 122.72C23.4103 122.72 23.4003 122.72 23.3903 122.71C23.3803 122.71 23.3603 122.7 23.3403 122.7C23.4703 122.76 23.6003 122.82 23.7203 122.88L23.6203 122.75C23.6003 122.76 23.5903 122.75 23.5703 122.75Z" fill="#8CAFBF" style="fill:#8CAFBF;fill:color(display-p3 0.5490 0.6863 0.7490);fill-opacity:1;"/>
<path d="M53.6002 107.7C53.1502 108.09 52.6902 108.49 52.2202 108.94C52.6802 108.51 53.1402 108.1 53.6002 107.7Z" fill="#8CAFBF" style="fill:#8CAFBF;fill:color(display-p3 0.5490 0.6863 0.7490);fill-opacity:1;"/>
<path d="M20.4603 122.22C20.3903 122.21 20.3303 122.2 20.2803 122.19C20.3403 122.2 20.4003 122.21 20.4603 122.22Z" fill="#738A97" style="fill:#738A97;fill:color(display-p3 0.4510 0.5412 0.5922);fill-opacity:1;"/>
<path d="M21.27 122.36C20.99 122.31 20.71 122.27 20.46 122.22C20.69 122.26 20.96 122.31 21.27 122.36Z" fill="#738A97" style="fill:#738A97;fill:color(display-p3 0.4510 0.5412 0.5922);fill-opacity:1;"/>
<path d="M20.0502 122.15C19.9302 122.13 19.8202 122.11 19.7402 122.1C19.8302 122.12 19.9302 122.13 20.0502 122.15Z" fill="#738A97" style="fill:#738A97;fill:color(display-p3 0.4510 0.5412 0.5922);fill-opacity:1;"/>
<path d="M20.2803 122.19C20.2003 122.18 20.1203 122.16 20.0503 122.15C20.1203 122.17 20.1903 122.18 20.2803 122.19Z" fill="#738A97" style="fill:#738A97;fill:color(display-p3 0.4510 0.5412 0.5922);fill-opacity:1;"/>
<path d="M22.6 122.59C22.47 122.57 22.35 122.55 22.23 122.53C22.36 122.54 22.48 122.57 22.6 122.59Z" fill="#738A97" style="fill:#738A97;fill:color(display-p3 0.4510 0.5412 0.5922);fill-opacity:1;"/>
<path d="M23.1701 122.68C23.0101 122.65 22.8201 122.62 22.6001 122.58C22.7801 122.62 22.9701 122.65 23.1701 122.68Z" fill="#738A97" style="fill:#738A97;fill:color(display-p3 0.4510 0.5412 0.5922);fill-opacity:1;"/>
<path d="M21.92 122.47C21.68 122.43 21.46 122.39 21.27 122.36C21.49 122.4 21.71 122.43 21.92 122.47Z" fill="#738A97" style="fill:#738A97;fill:color(display-p3 0.4510 0.5412 0.5922);fill-opacity:1;"/>
<path d="M22.2299 122.52C22.1299 122.5 22.0299 122.49 21.9199 122.47C22.0199 122.49 22.1299 122.51 22.2299 122.52Z" fill="#738A97" style="fill:#738A97;fill:color(display-p3 0.4510 0.5412 0.5922);fill-opacity:1;"/>
<path d="M19.6 122.08C19.56 122.07 19.54 122.07 19.52 122.07C19.54 122.07 19.57 122.07 19.6 122.08Z" fill="#738A97" style="fill:#738A97;fill:color(display-p3 0.4510 0.5412 0.5922);fill-opacity:1;"/>
<path d="M54.9104 106.65C54.4804 106.98 54.0504 107.32 53.6104 107.7C54.0304 107.33 54.4704 107 54.9104 106.65Z" fill="#738A97" style="fill:#738A97;fill:color(display-p3 0.4510 0.5412 0.5922);fill-opacity:1;"/>
<path d="M23.1699 122.68C23.2299 122.69 23.2899 122.7 23.3399 122.71C23.2799 122.7 23.2199 122.69 23.1699 122.68Z" fill="#738A97" style="fill:#738A97;fill:color(display-p3 0.4510 0.5412 0.5922);fill-opacity:1;"/>
<path d="M19.7401 122.1C19.6801 122.09 19.6401 122.08 19.6001 122.08C19.6401 122.09 19.6901 122.09 19.7401 122.1Z" fill="#738A97" style="fill:#738A97;fill:color(display-p3 0.4510 0.5412 0.5922);fill-opacity:1;"/>
<path d="M19.5301 122.07C19.5101 122.06 19.5101 122.06 19.5301 122.07V122.07Z" fill="#738A97" style="fill:#738A97;fill:color(display-p3 0.4510 0.5412 0.5922);fill-opacity:1;"/>
<path d="M23.5703 122.75C23.5903 122.75 23.6003 122.76 23.6203 122.76C23.6203 122.76 23.6003 122.75 23.5703 122.75Z" fill="#738A97" style="fill:#738A97;fill:color(display-p3 0.4510 0.5412 0.5922);fill-opacity:1;"/>
<path d="M23.3403 122.71C23.3603 122.71 23.3703 122.72 23.3903 122.72C23.3703 122.72 23.3503 122.71 23.3403 122.71Z" fill="#738A97" style="fill:#738A97;fill:color(display-p3 0.4510 0.5412 0.5922);fill-opacity:1;"/>
<path d="M23.4102 122.72C23.4802 122.73 23.5302 122.74 23.5602 122.75C23.5102 122.74 23.4702 122.73 23.4102 122.72Z" fill="#738A97" style="fill:#738A97;fill:color(display-p3 0.4510 0.5412 0.5922);fill-opacity:1;"/>
<path d="M32.9598 124.82C32.7398 124.84 32.5198 124.86 32.2998 124.86C32.5298 124.86 32.7498 124.84 32.9598 124.82Z" fill="#427687" style="fill:#427687;fill:color(display-p3 0.2588 0.4627 0.5294);fill-opacity:1;"/>
<path d="M35.3397 124.33C35.2197 124.37 35.0897 124.41 34.9697 124.45C35.0997 124.41 35.2197 124.37 35.3397 124.33Z" fill="#427687" style="fill:#427687;fill:color(display-p3 0.2588 0.4627 0.5294);fill-opacity:1;"/>
<path d="M31.9397 124.87C31.4597 124.87 30.9597 124.86 30.4497 124.81C30.9597 124.85 31.4597 124.87 31.9397 124.87Z" fill="#427687" style="fill:#427687;fill:color(display-p3 0.2588 0.4627 0.5294);fill-opacity:1;"/>
<path d="M52.3597 108.82C52.3097 108.86 52.2697 108.9 52.2197 108.94C52.2697 108.9 52.3197 108.86 52.3597 108.82Z" fill="#427687" style="fill:#427687;fill:color(display-p3 0.2588 0.4627 0.5294);fill-opacity:1;"/>
<path d="M23.6199 122.76C32.8799 124.32 35.7599 120.84 35.7599 120.84C39.1099 117.02 45.7499 110.38 48.5799 107.58C42.4199 105.33 36.7399 101.96 31.9699 97.2C26.2299 91.46 21.6599 83.13 19.5299 76.29C12.5599 83.55 6.52994 88.91 5.95994 89.48C1.92994 93.51 3.48994 105.53 13.5599 115.6C19.4599 121.5 25.4399 124.29 30.2099 124.79C28.2199 124.57 26.0199 123.96 23.6999 122.89L23.6199 122.76Z" fill="#427687" style="fill:#427687;fill:color(display-p3 0.2588 0.4627 0.5294);fill-opacity:1;"/>
<path d="M42.7901 118.02C41.8701 118.91 41.0701 119.7 40.3901 120.38C41.0701 119.71 41.8701 118.92 42.7901 118.02Z" fill="#54646D" style="fill:#54646D;fill:color(display-p3 0.3294 0.3922 0.4275);fill-opacity:1;"/>
<path d="M36.1298 124.01C35.8798 124.13 35.6098 124.23 35.3398 124.33C35.6198 124.23 35.8798 124.13 36.1298 124.01Z" fill="#54646D" style="fill:#54646D;fill:color(display-p3 0.3294 0.3922 0.4275);fill-opacity:1;"/>
<path d="M37.1098 123.46C36.8498 123.64 36.5698 123.8 36.2798 123.95C36.5698 123.8 36.8498 123.63 37.1098 123.46Z" fill="#54646D" style="fill:#54646D;fill:color(display-p3 0.3294 0.3922 0.4275);fill-opacity:1;"/>
<path d="M30.45 124.8C30.38 124.79 30.31 124.79 30.23 124.78C30.3 124.79 30.38 124.8 30.45 124.8Z" fill="#54646D" style="fill:#54646D;fill:color(display-p3 0.3294 0.3922 0.4275);fill-opacity:1;"/>
<path d="M32.2999 124.86C32.1799 124.86 32.0599 124.86 31.9399 124.86C32.0599 124.87 32.1799 124.87 32.2999 124.86Z" fill="#54646D" style="fill:#54646D;fill:color(display-p3 0.3294 0.3922 0.4275);fill-opacity:1;"/>
<path d="M34.9699 124.45C34.7199 124.52 34.4599 124.59 34.1899 124.64C34.4599 124.58 34.7199 124.52 34.9699 124.45Z" fill="#54646D" style="fill:#54646D;fill:color(display-p3 0.3294 0.3922 0.4275);fill-opacity:1;"/>
<path d="M35.7699 120.83C35.7699 120.83 32.8799 124.32 23.6299 122.75L23.7299 122.88C26.0499 123.95 28.2499 124.56 30.2399 124.78C30.3099 124.79 30.3799 124.79 30.4599 124.8C30.9699 124.85 31.4699 124.87 31.9499 124.86C32.0699 124.86 32.1899 124.86 32.3099 124.86C32.5399 124.85 32.7599 124.83 32.9699 124.82C33.1599 124.8 33.3499 124.78 33.5399 124.75C33.7599 124.72 33.9799 124.68 34.1999 124.64C34.4699 124.58 34.7299 124.52 34.9799 124.45C35.1099 124.41 35.2299 124.37 35.3499 124.33C35.6199 124.24 35.8899 124.13 36.1399 124.01C36.1899 123.99 36.2399 123.97 36.2799 123.95C36.5799 123.8 36.8499 123.64 37.1099 123.46C37.1799 123.41 37.2499 123.36 37.3199 123.31C37.5799 123.12 37.8299 122.92 38.0499 122.7C38.4499 122.3 39.2499 121.5 40.3899 120.38C41.0699 119.71 41.8799 118.92 42.7899 118.02C43.0899 117.72 43.4099 117.41 43.7399 117.09C46.0399 114.85 48.9199 112.07 52.2299 108.94C52.2799 108.9 52.3199 108.86 52.3599 108.82C51.0799 108.46 49.8299 108.03 48.5899 107.58C45.7599 110.38 39.1199 117.02 35.7699 120.83Z" fill="#2A4E56" style="fill:#2A4E56;fill:color(display-p3 0.1647 0.3059 0.3373);fill-opacity:1;"/>
<path d="M71.6298 98.6299C70.6098 98.1599 69.5398 97.6099 68.4798 96.9899C62.4598 93.4499 56.8198 89.9199 56.8198 89.9199C57.3598 91.8399 56.6398 92.7999 59.4098 95.2099C61.3998 96.9299 60.9098 100.16 58.5098 101.21C53.6798 103.33 51.1498 104.99 49.9198 106.26C49.9198 106.26 49.4198 106.76 48.5898 107.58C49.8298 108.03 51.0898 108.46 52.3598 108.82C52.7798 108.42 53.1998 108.06 53.5998 107.71C54.0298 107.34 54.4698 107 54.8998 106.66C63.7698 99.8399 69.0098 104.25 79.9498 101.41C79.9498 101.4 76.1598 100.72 71.6298 98.6299ZM61.1098 102.56C60.4298 102.93 59.7498 103.32 59.0698 103.73C59.7398 103.32 60.4198 102.93 61.1098 102.56ZM59.0298 103.75C57.6398 104.6 56.2598 105.57 54.9098 106.64C56.2598 105.57 57.6398 104.61 59.0298 103.75ZM68.3198 99.5399C68.7198 99.4199 69.1098 99.2799 69.5098 99.1699C69.1198 99.2899 68.7198 99.4199 68.3198 99.5399ZM61.2298 102.5C61.8798 102.15 62.5398 101.83 63.1898 101.52C62.5398 101.82 61.8798 102.15 61.2298 102.5ZM63.4698 101.39C64.0798 101.11 64.6798 100.85 65.2898 100.61C64.6898 100.85 64.0798 101.12 63.4698 101.39ZM65.8098 100.42C66.3398 100.22 66.8698 100.01 67.3998 99.8399C66.8698 100.01 66.3398 100.21 65.8098 100.42Z" fill="#738A97" style="fill:#738A97;fill:color(display-p3 0.4510 0.5412 0.5922);fill-opacity:1;"/>
<path d="M20.0001 83.3501C14.2801 89.4201 7.78015 96.0901 7.78015 96.0901C7.78015 96.0901 7.40015 101.65 12.5801 107.9C12.5801 107.9 19.6001 100.88 26.1001 94.6101C22.4301 90.0401 20.7201 85.6801 20.0001 83.3501Z" fill="#8CAFBF" style="fill:#8CAFBF;fill:color(display-p3 0.5490 0.6863 0.7490);fill-opacity:1;"/>
<path d="M95.2601 100.34C87.0001 108.6 66.3601 100.43 47.2701 81.3299C28.1701 62.2299 20.0001 41.5999 28.2601 33.3399C36.5201 25.0799 55.3301 35.0699 74.4301 54.1699C93.5201 73.2699 103.52 92.0799 95.2601 100.34ZM31.9001 36.9899C26.7701 42.1199 33.3101 60.0999 50.9101 77.6899C68.5101 95.2799 86.4801 101.83 91.6101 96.6999C96.7401 91.5699 90.2001 73.5899 72.6001 55.9999C55.0001 38.4099 37.0301 31.8599 31.9001 36.9899Z" fill="#B3D0E0" style="fill:#B3D0E0;fill:color(display-p3 0.7020 0.8157 0.8784);fill-opacity:1;"/>
<path d="M32.0098 53.6402C32.9398 55.6702 34.2598 60.9302 44.1698 72.6702C44.5098 73.0702 45.9098 74.8802 45.0198 75.7702C44.4298 76.3602 43.3498 75.6402 42.1098 74.4002C37.2698 69.5602 32.7398 63.4302 29.3398 56.3002C27.4198 52.2702 30.7198 50.8402 32.0098 53.6402Z" fill="#B2DFEC" style="fill:#B2DFEC;fill:color(display-p3 0.6980 0.8745 0.9255);fill-opacity:1;"/>
</svg>

<?xml version="1.0" encoding="utf-8"?>
<!-- Generator: Adobe Illustrator 25.2.3, SVG Export Plug-In . SVG Version: 6.00 Build 0)  -->
<svg version="1.1" id="Layer_1" xmlns="http://www.w3.org/2000/svg" xmlns:xlink="http://www.w3.org/1999/xlink" x="0px" y="0px"
	 viewBox="0 0 128 128" style="enable-background:new 0 0 128 128;" xml:space="preserve">
<g>
	<path style="fill:none;stroke:#B0BEC5;stroke-miterlimit:10;" d="M91.2,37.8"/>
	<path style="fill:none;stroke:#B0BEC5;stroke-width:5;stroke-linecap:round;stroke-miterlimit:10;" d="M92.47,59.64
		c2.11-6.45,0.76-13.82-4.17-19.14c-4.94-5.32-12.19-7.22-18.78-5.59"/>
</g>
<g>
	<g>
		<path style="fill:#8CAFBF;" d="M93.43,98.52c0,0-23.66-6.21-41.21,10.42c-7.55,7.16-12.89,12.47-14.18,13.76
			c-4.03,4.03-14.4,2.96-24.47-7.11s-11.63-22.1-7.6-26.12c0.6-0.6,7.34-6.59,14.82-14.5c7.99-8.46,6.55-20.27,7.06-27.56
			c0.61-8.76,2.22-12.23,2.22-12.23L93.43,98.52z"/>
		
			<ellipse transform="matrix(0.7071 -0.7071 0.7071 0.7071 -29.1715 63.246)" style="fill:#54646D;" cx="61.76" cy="66.84" rx="17.92" ry="44.8"/>
		<path style="fill:#2C3640;" d="M80.73,63.64c0,0-17.36,13.61-8.17,32.67L40.37,69.69l-12.4-26.81l2.11-7.71l10.15-2.5l15.66,7.83
			l18.54,13.67L80.73,63.64z"/>
		<path style="fill:#8CAFBF;" d="M43.92,70.01l8.7-5.97l12.1,12.1l-5.22,9.28C50.08,78.02,43.92,70.01,43.92,70.01z"/>
		
			<ellipse transform="matrix(0.7071 -0.7071 0.7071 0.7071 -32.3768 62.0142)" style="fill:#B2DFEC;" cx="58.67" cy="70.09" rx="4.06" ry="8.56"/>
		<path style="fill:#B2DFEC;" d="M23.59,79.02c3.34-4.36,3.6-6.55,4.73-11.93c3.19,6.97,8.41,13.99,14.48,18.67
			c-2.69,0.92-3.01-0.96-5.51,0.4c-2.08,1.13-3.99,2.54-5.85,4.01c-4.22,3.31,1.9-2.03-1.8,1.75c-0.6,0.62-6.05,6.37-6.05,6.37
			s-3.31-0.57-4.27-2.13c-0.58-0.95-2.13-8.11-2.13-8.11S22.6,80.31,23.59,79.02z"/>
	</g>
</g>
<g>
	<path style="fill:#8CAFBF;" d="M23.57,122.75c-0.04-0.01-0.09-0.01-0.15-0.03c-0.01,0-0.02,0-0.03-0.01
		c-0.01,0-0.03-0.01-0.05-0.01c0.13,0.06,0.26,0.12,0.38,0.18l-0.1-0.13C23.6,122.76,23.59,122.75,23.57,122.75z"/>
	<path style="fill:#8CAFBF;" d="M53.6,107.7c-0.45,0.39-0.91,0.79-1.38,1.24C52.68,108.51,53.14,108.1,53.6,107.7z"/>
	<path style="fill:#738A97;" d="M20.46,122.22c-0.07-0.01-0.13-0.02-0.18-0.03C20.34,122.2,20.4,122.21,20.46,122.22z"/>
	<path style="fill:#738A97;" d="M21.27,122.36c-0.28-0.05-0.56-0.09-0.81-0.14C20.69,122.26,20.96,122.31,21.27,122.36z"/>
	<path style="fill:#738A97;" d="M20.05,122.15c-0.12-0.02-0.23-0.04-0.31-0.05C19.83,122.12,19.93,122.13,20.05,122.15z"/>
	<path style="fill:#738A97;" d="M20.28,122.19c-0.08-0.01-0.16-0.03-0.23-0.04C20.12,122.17,20.19,122.18,20.28,122.19z"/>
	<path style="fill:#738A97;" d="M22.6,122.59c-0.13-0.02-0.25-0.04-0.37-0.06C22.36,122.54,22.48,122.57,22.6,122.59z"/>
	<path style="fill:#738A97;" d="M23.17,122.68c-0.16-0.03-0.35-0.06-0.57-0.1C22.78,122.62,22.97,122.65,23.17,122.68z"/>
	<path style="fill:#738A97;" d="M21.92,122.47c-0.24-0.04-0.46-0.08-0.65-0.11C21.49,122.4,21.71,122.43,21.92,122.47z"/>
	<path style="fill:#738A97;" d="M22.23,122.52c-0.1-0.02-0.2-0.03-0.31-0.05C22.02,122.49,22.13,122.51,22.23,122.52z"/>
	<path style="fill:#738A97;" d="M19.6,122.08c-0.04-0.01-0.06-0.01-0.08-0.01C19.54,122.07,19.57,122.07,19.6,122.08z"/>
	<g>
		<path style="fill:#738A97;" d="M54.91,106.65c-0.43,0.33-0.86,0.67-1.3,1.05C54.03,107.33,54.47,107,54.91,106.65z"/>
	</g>
	<path style="fill:#738A97;" d="M23.17,122.68c0.06,0.01,0.12,0.02,0.17,0.03l0,0C23.28,122.7,23.22,122.69,23.17,122.68z"/>
	<path style="fill:#738A97;" d="M19.74,122.1c-0.06-0.01-0.1-0.02-0.14-0.02C19.64,122.09,19.69,122.09,19.74,122.1z"/>
	<path style="fill:#738A97;" d="M19.53,122.07C19.51,122.06,19.51,122.06,19.53,122.07L19.53,122.07z"/>
	<path style="fill:#738A97;" d="M23.57,122.75c0.02,0,0.03,0.01,0.05,0.01C23.62,122.76,23.6,122.75,23.57,122.75z"/>
	<path style="fill:#738A97;" d="M23.34,122.71L23.34,122.71c0.02,0,0.03,0.01,0.05,0.01C23.37,122.72,23.35,122.71,23.34,122.71z"/>
	<path style="fill:#738A97;" d="M23.38,122.72c0.01,0,0.02,0,0.03,0.01C23.4,122.72,23.39,122.72,23.38,122.72z"/>
	<path style="fill:#738A97;" d="M23.41,122.72c0.07,0.01,0.12,0.02,0.15,0.03C23.51,122.74,23.47,122.73,23.41,122.72z"/>
</g>
<g>
	<path style="fill:#427687;" d="M32.96,124.82c-0.22,0.02-0.44,0.04-0.66,0.04C32.53,124.86,32.75,124.84,32.96,124.82z"/>
	<path style="fill:#427687;" d="M37.32,123.31c-0.07,0.05-0.14,0.1-0.21,0.15C37.18,123.41,37.25,123.36,37.32,123.31z"/>
	<path style="fill:#427687;" d="M36.28,123.95c-0.05,0.02-0.1,0.04-0.14,0.06C36.18,123.99,36.23,123.97,36.28,123.95z"/>
	<path style="fill:#427687;" d="M35.34,124.33c-0.12,0.04-0.25,0.08-0.37,0.12C35.1,124.41,35.22,124.37,35.34,124.33z"/>
	<path style="fill:#427687;" d="M31.94,124.87c-0.48,0-0.98-0.01-1.49-0.06C30.96,124.85,31.46,124.87,31.94,124.87z"/>
	<path style="fill:#427687;" d="M34.19,124.64c-0.21,0.04-0.43,0.08-0.66,0.11C33.76,124.72,33.98,124.68,34.19,124.64z"/>
	<path style="fill:#427687;" d="M52.36,108.82L52.36,108.82c-0.05,0.04-0.09,0.08-0.14,0.12C52.27,108.9,52.32,108.86,52.36,108.82z
		"/>
	<path style="fill:#427687;" d="M23.62,122.76c9.26,1.56,12.14-1.92,12.14-1.92c3.35-3.82,9.99-10.46,12.82-13.26
		c-6.16-2.25-11.84-5.62-16.61-10.38c-5.74-5.74-10.31-14.07-12.44-20.91c-6.97,7.26-13,12.62-13.57,13.19
		c-4.03,4.03-2.47,16.05,7.6,26.12c5.9,5.9,11.88,8.69,16.65,9.19c-1.99-0.22-4.19-0.83-6.51-1.9L23.62,122.76z"/>
	<path style="fill:#54646D;" d="M42.79,118.02c-0.92,0.89-1.72,1.68-2.4,2.36C41.07,119.71,41.87,118.92,42.79,118.02z"/>
	<path style="fill:#54646D;" d="M38.05,122.7c-0.22,0.22-0.47,0.42-0.73,0.61C37.58,123.12,37.83,122.92,38.05,122.7z"/>
	<path style="fill:#54646D;" d="M36.13,124.01c-0.25,0.12-0.52,0.22-0.79,0.32C35.62,124.23,35.88,124.13,36.13,124.01z"/>
	<path style="fill:#54646D;" d="M37.11,123.46c-0.26,0.18-0.54,0.34-0.83,0.49C36.57,123.8,36.85,123.63,37.11,123.46z"/>
	<path style="fill:#54646D;" d="M43.74,117.09c2.3-2.24,5.18-5.02,8.49-8.15l0,0l0,0C48.92,112.07,46.04,114.85,43.74,117.09z"/>
	<path style="fill:#54646D;" d="M30.45,124.8c-0.07-0.01-0.14-0.01-0.22-0.02C30.3,124.79,30.38,124.8,30.45,124.8z"/>
	<path style="fill:#54646D;" d="M33.54,124.75c-0.19,0.03-0.38,0.05-0.57,0.07C33.16,124.8,33.35,124.78,33.54,124.75z"/>
	<path style="fill:#54646D;" d="M32.3,124.86c-0.12,0-0.24,0-0.36,0C32.06,124.87,32.18,124.87,32.3,124.86z"/>
	<path style="fill:#54646D;" d="M34.97,124.45c-0.25,0.07-0.51,0.14-0.78,0.19C34.46,124.58,34.72,124.52,34.97,124.45z"/>
	<path style="fill:#2A4E56;" d="M35.77,120.83c0,0-2.89,3.49-12.14,1.92l0.1,0.13c2.32,1.07,4.52,1.68,6.51,1.9
		c0.07,0.01,0.14,0.01,0.22,0.02c0.51,0.05,1.01,0.07,1.49,0.06c0.12,0,0.24,0,0.36,0c0.23-0.01,0.45-0.03,0.66-0.04
		c0.19-0.02,0.38-0.04,0.57-0.07c0.22-0.03,0.44-0.07,0.66-0.11c0.27-0.06,0.53-0.12,0.78-0.19c0.13-0.04,0.25-0.08,0.37-0.12
		c0.27-0.09,0.54-0.2,0.79-0.32c0.05-0.02,0.1-0.04,0.14-0.06c0.3-0.15,0.57-0.31,0.83-0.49c0.07-0.05,0.14-0.1,0.21-0.15
		c0.26-0.19,0.51-0.39,0.73-0.61c0.4-0.4,1.2-1.2,2.34-2.32c0.68-0.67,1.49-1.46,2.4-2.36c0.3-0.3,0.62-0.61,0.95-0.93
		c2.3-2.24,5.18-5.02,8.49-8.15l0,0c0.05-0.04,0.09-0.08,0.13-0.12c-1.28-0.36-2.53-0.79-3.77-1.24
		C45.76,110.38,39.12,117.02,35.77,120.83z"/>
</g>
<path style="fill:#738A97;" d="M71.63,98.63c-1.02-0.47-2.09-1.02-3.15-1.64c-6.02-3.54-11.66-7.07-11.66-7.07
	c0.54,1.92-0.18,2.88,2.59,5.29c1.99,1.72,1.5,4.95-0.9,6c-4.83,2.12-7.36,3.78-8.59,5.05c0,0-0.5,0.5-1.33,1.32
	c1.24,0.45,2.5,0.88,3.77,1.24c0.42-0.4,0.84-0.76,1.24-1.11c0.43-0.37,0.87-0.71,1.3-1.05c8.87-6.82,14.11-2.41,25.05-5.25
	C79.95,101.4,76.16,100.72,71.63,98.63z M61.11,102.56c-0.68,0.37-1.36,0.76-2.04,1.17C59.74,103.32,60.42,102.93,61.11,102.56z
	 M59.03,103.75c-1.39,0.85-2.77,1.82-4.12,2.89C56.26,105.57,57.64,104.61,59.03,103.75z M68.32,99.54c0.4-0.12,0.79-0.26,1.19-0.37
	C69.12,99.29,68.72,99.42,68.32,99.54z M61.23,102.5c0.65-0.35,1.31-0.67,1.96-0.98C62.54,101.82,61.88,102.15,61.23,102.5z
	 M63.47,101.39c0.61-0.28,1.21-0.54,1.82-0.78C64.69,100.85,64.08,101.12,63.47,101.39z M65.81,100.42c0.53-0.2,1.06-0.41,1.59-0.58
	C66.87,100.01,66.34,100.21,65.81,100.42z"/>
<path style="fill:#8CAFBF;" d="M20,83.35C14.28,89.42,7.78,96.09,7.78,96.09s-0.38,5.56,4.8,11.81c0,0,7.02-7.02,13.52-13.29
	C22.43,90.04,20.72,85.68,20,83.35z"/>
<g>
	<path style="fill:#B3D0E0;" d="M95.26,100.34c-8.26,8.26-28.9,0.09-47.99-19.01C28.17,62.23,20,41.6,28.26,33.34
		s27.07,1.73,46.17,20.83C93.52,73.27,103.52,92.08,95.26,100.34z M31.9,36.99c-5.13,5.13,1.41,23.11,19.01,40.7
		s35.57,24.14,40.7,19.01C96.74,91.57,90.2,73.59,72.6,56S37.03,31.86,31.9,36.99z"/>
</g>
<path style="fill:#B2DFEC;" d="M32.01,53.64c0.93,2.03,2.25,7.29,12.16,19.03c0.34,0.4,1.74,2.21,0.85,3.1
	c-0.59,0.59-1.67-0.13-2.91-1.37c-4.84-4.84-9.37-10.97-12.77-18.1C27.42,52.27,30.72,50.84,32.01,53.64z"/>
</svg>
